icons/lines/music-square-add.svg

<svg xmlns="http://www.w3.org/2000/svg" width="24" height="24" viewBox="0 0 24 24" fill="none" stroke="currentColor" stroke-width="2" stroke-linecap="round" stroke-linejoin="round" >
  <path d="M21 8.65002V14.35C21 14.69 20.99 15.02 20.97 15.33C20.25 14.51 19.18 14 18 14C15.79 14 14 15.79 14 18C14 18.75 14.21 19.46 14.58 20.06C14.78 20.4 15.04 20.71 15.34 20.97C15.03 20.99 14.7 21 14.35 21H8.64999C3.89999 21 2 19.1 2 14.35V8.65002C2 3.90002 3.89999 2 8.64999 2H14.35C19.1 2 21 3.90002 21 8.65002Z"/>
  <path d="M6.72002 14.42C7.52083 14.42 8.17001 13.7708 8.17001 12.97C8.17001 12.1692 7.52083 11.52 6.72002 11.52C5.9192 11.52 5.27002 12.1692 5.27002 12.97C5.27002 13.7708 5.9192 14.42 6.72002 14.42Z"/>
  <path d="M13.4802 12V6.34001C13.4802 5.13001 12.7202 4.96997 11.9602 5.17997L9.07019 5.96995C8.55019 6.10995 8.18018 6.52999 8.18018 7.12999V8.14V8.81999V12.97"/>
  <path d="M12.0301 13.45C12.8309 13.45 13.4801 12.8008 13.4801 12C13.4801 11.1992 12.8309 10.55 12.0301 10.55C11.2293 10.55 10.5801 11.1992 10.5801 12C10.5801 12.8008 11.2293 13.45 12.0301 13.45Z"/>
  <path d="M8.16992 8.83002L13.4799 7.38"/>
  <path d="M22 18C22 18.75 21.79 19.46 21.42 20.06C20.73 21.22 19.46 22 18 22C16.54 22 15.27 21.22 14.58 20.06C14.21 19.46 14 18.75 14 18C14 15.79 15.79 14 18 14C20.21 14 22 15.79 22 18Z" stroke-miterlimit="10"/>
  <path d="M19.4898 17.98H16.5098" stroke-miterlimit="10"/>
  <path d="M18 16.52V19.51" stroke-miterlimit="10"/>
  </svg>

<svg xmlns="http://www.w3.org/2000/svg" width="24" height="24" viewBox="0 0 24 24" fill="none" stroke="currentColor" stroke-width="2" stroke-linecap="round" stroke-linejoin="round">
  <path d="M18 16.52v2.99" />
  <path d="M19.49 17.98h-2.98" />
  <path d="M21 14.35a15 15 0 0 1-.03.98A4 4 0 0 0 14 18a4 4 0 0 0 .58 2.06 3.7 3.7 0 0 0 .76.91 15 15 0 0 1-.99.03h-5.7C3.9 21 2 19.1 2 14.35v-5.7C2 3.9 3.9 2 8.65 2h5.7C19.1 2 21 3.9 21 8.65z" />
  <path d="m8.17 8.83 5.31-1.45" />
  <path d="M8.18 12.97V7.13a1.16 1.16 0 0 1 .89-1.16l2.89-.79c.76-.21 1.52-.05 1.52 1.16V12" />
  <circle cx="12.03" cy="12" r="1.45" />
  <circle cx="18" cy="17.995" r="4" />
  <circle cx="6.72" cy="12.97" r="1.45" />
</svg>
